X: 1
T: Calum's Road
C: Donald Shaw (Capercallie)
%D:1987
R: march, strathspey
Z: 2014 John Chambers <jc:trillian.mit.edu>
N: "Presented by Angus Grant, Boston Harbor Scottish Fiddle School, August 2003" at bottom of page
S: printed copy of unknown origin
M: 12/16
L: 1/16
K: D
z3 |\
"D"D3 A2F A3- A2B | "G"Bd2 d2c "D"B2A FA2 |\
"G"B3 d2E "D/F"F2-F (ED2) | "Em"B,D2 D2{E}F "A"{D}E6 |\
"D"D3 A2F A3- A2A |
"G"Bd2 d2c "D/F"B2A FA2 |\
"G"B3 d2E "D/F"(F2F) ED2 | "Em"B,D2 D2E "D"D3 ::\
(FA2) |\
"G"B3 d2c B6 | "A"A2B AE2 "D"F3 F2A |
"G"B3 d2c B3 BAB | "D"d3 d2e fed dBA |\
"G"B3 d2c B6 | "A"A2B A2E "D"F3 (F2A) |\
"G"B3 d2E "D/F"(F2F) ED2 | "Em"B,D2 D2E "D"D3 :|
